icon/lg/pwa.svg

<?xml version="1.0" encoding="UTF-8"?>
<svg viewBox="0 0 512 193" version="1.1" xmlns="http://www.w3.org/2000/svg" xmlns:xlink="http://www.w3.org/1999/xlink" preserveAspectRatio="xMidYMid" height="1em" width="1em">
  <g>
    <polygon fill="#3D3D3D" points="376.818362 158.243566 391.609181 120.840549 434.316067 120.840549 414.048526 64.1021885 439.396722 3.2018623e-05 512.000001 192.769205 458.457706 192.769205 446.051149 158.243566"/>
    <polygon fill="#5A0FC8" points="331.139673 192.76973 408.862952 0.000304174426 357.335083 0.000560323934 304.16787 124.572484 266.360657 0.00081647082 226.753837 0.00081647082 186.158952 124.572484 157.530493 67.8076311 131.622821 147.624549 157.926821 192.76973 208.636591 192.76973 245.320394 81.0556311 280.296394 192.76973"/>
    <path d="M48.9117387,126.594779 L80.6502305,126.594779 C90.2643944,126.594779 98.8254436,125.52173 106.333378,123.375631 L114.541378,98.0882869 L137.481444,27.4139262 C135.733509,24.6434344 133.737968,22.0239459 131.494821,19.5558016 C119.71646,6.51845082 102.483673,0 79.7959354,0 L0,0 L0,192.769205 L48.9117387,192.769205 L48.9117387,126.594779 Z M90.9224928,44.3484836 C95.5231485,48.9787787 97.8232141,55.1749754 97.8232141,62.9375984 C97.8232141,70.7597623 95.8001321,76.9635656 91.7542305,81.5490082 C87.3188207,86.6440902 79.1517387,89.1915 67.2535092,89.1915 L48.9117387,89.1915 L48.9117387,37.4026475 L67.3883289,37.4026475 C78.477378,37.4026475 86.3220994,39.7179262 90.9224928,44.3484836 Z" fill="#3D3D3D"/>
  </g>
</svg>

<svg width="512" height="193" xmlns="http://www.w3.org/2000/svg" preserveAspectRatio="xMidYMid"><path fill="#3D3D3D" d="m376.818 158.244 14.791-37.403h42.707L414.05 64.102 439.397 0 512 192.77h-53.542l-12.407-34.526z"/><path fill="#5A0FC8" d="M331.14 192.77 408.863 0h-51.528l-53.167 124.572L266.36.001h-39.607l-40.595 124.571-28.629-56.764-25.907 79.817 26.304 45.145h50.71L245.32 81.056l34.976 111.714z"/><path d="M48.912 126.595H80.65c9.614 0 18.175-1.073 25.683-3.22l8.208-25.287 22.94-70.674a56.47 56.47 0 0 0-5.986-7.858C119.716 6.518 102.484 0 79.795 0H0v192.77h48.912v-66.175Zm42.01-82.247c4.601 4.63 6.901 10.827 6.901 18.59 0 7.822-2.023 14.026-6.069 18.611-4.435 5.095-12.602 7.642-24.5 7.642H48.912V37.404h18.476c11.09 0 18.934 2.315 23.534 6.945Z" fill="#3D3D3D"/></svg>
